local/share/icons/dracula-icons-main/scalable/mimetypes/application-x-sogouskin.svg

<?xml version="1.0" encoding="UTF-8"?>
<svg xmlns="http://www.w3.org/2000/svg" xmlns:xlink="http://www.w3.org/1999/xlink" width="64" height="64" viewBox="0 0 64 64">
<defs>
<filter id="filter-remove-color" x="0%" y="0%" width="100%" height="100%">
<feColorMatrix color-interpolation-filters="sRGB" values="0 0 0 0 1 0 0 0 0 1 0 0 0 0 1 0 0 0 1 0" />
</filter>
<mask id="mask-0">
<g filter="url(#filter-remove-color)">
<rect x="-6.4" y="-6.4" width="76.8" height="76.8" fill="rgb(0%, 0%, 0%)" fill-opacity="0.15"/>
</g>
</mask>
<linearGradient id="linear-pattern-0" gradientUnits="userSpaceOnUse" x1="49.570999" y1="52.714001" x2="51.714001" y2="54.856998" gradientTransform="matrix(0.61734, 0, 0, 0.61734, -18.167999, -19.049999)">
<stop offset="0" stop-color="rgb(0%, 0%, 0%)" stop-opacity="1"/>
<stop offset="1" stop-color="rgb(0%, 0%, 0%)" stop-opacity="0"/>
</linearGradient>
<clipPath id="clip-0">
<rect x="0" y="0" width="17" height="17"/>
</clipPath>
<g id="source-7536" clip-path="url(#clip-0)">
<path fill-rule="evenodd" fill="url(#linear-pattern-0)" d="M 14.816406 12.171875 L 11.113281 15.875 L 13.492188 15.875 C 14.226562 15.875 14.816406 15.285156 14.816406 14.550781 Z M 14.816406 12.171875 "/>
</g>
<mask id="mask-1">
<g filter="url(#filter-remove-color)">
<rect x="-6.4" y="-6.4" width="76.8" height="76.8" fill="rgb(0%, 0%, 0%)" fill-opacity="0.5"/>
</g>
</mask>
<clipPath id="clip-1">
<rect x="0" y="0" width="17" height="17"/>
</clipPath>
<g id="source-7542" clip-path="url(#clip-1)">
<path fill-rule="nonzero" fill="rgb(100%, 100%, 100%)" fill-opacity="1" d="M 5.097656 8.722656 C 5.089844 8.722656 5.085938 8.722656 5.082031 8.722656 C 4.765625 8.730469 4.453125 8.742188 4.25 8.773438 C 3.328125 8.914062 2.59375 9.234375 2.117188 9.703125 C 2.117188 9.707031 2.117188 9.707031 2.117188 9.707031 L 2.117188 12.410156 C 2.359375 12.675781 2.683594 12.925781 3.101562 13.175781 C 3.46875 13.390625 3.75 13.53125 4.566406 13.902344 C 5.542969 14.339844 5.839844 14.515625 5.980469 14.738281 C 6.035156 14.828125 6.054688 14.871094 6.046875 14.980469 C 6.03125 15.148438 5.949219 15.234375 5.746094 15.308594 C 5.613281 15.355469 5.566406 15.367188 5.3125 15.367188 C 4.851562 15.363281 4.445312 15.277344 3.882812 15.078125 C 3.492188 14.941406 3.117188 14.757812 2.769531 14.53125 C 2.441406 14.316406 2.414062 14.308594 2.320312 14.359375 C 2.300781 14.371094 2.191406 14.46875 2.117188 14.53125 L 2.117188 14.550781 C 2.117188 15.285156 2.707031 15.875 3.441406 15.875 L 9.144531 15.875 C 9.300781 15.683594 9.40625 15.507812 9.492188 15.269531 C 9.585938 15.003906 9.613281 14.476562 9.542969 14.15625 C 9.425781 13.636719 9.113281 13.167969 8.609375 12.773438 C 8.105469 12.375 7.59375 12.113281 6.363281 11.621094 C 5.503906 11.277344 5.183594 11.097656 5.097656 10.90625 C 5.050781 10.804688 5.078125 10.621094 5.148438 10.554688 C 5.28125 10.417969 5.542969 10.367188 5.882812 10.410156 C 6.507812 10.484375 7.316406 10.773438 8.027344 11.171875 C 8.164062 11.25 8.296875 11.3125 8.328125 11.316406 C 8.441406 11.347656 8.511719 11.300781 8.976562 10.773438 C 9.546875 10.121094 9.539062 10.144531 9.226562 9.921875 C 8.289062 9.253906 7.207031 8.863281 5.964844 8.746094 C 5.675781 8.722656 5.386719 8.714844 5.097656 8.722656 Z M 5.097656 8.722656 "/>
</g>
</defs>
<path fill-rule="nonzero" fill="rgb(100%, 46.27451%, 26.27451%)" fill-opacity="1" d="M 3.441406 1.058594 L 13.492188 1.058594 C 14.222656 1.058594 14.816406 1.652344 14.816406 2.382812 L 14.816406 14.550781 C 14.816406 15.28125 14.222656 15.875 13.492188 15.875 L 3.441406 15.875 C 2.707031 15.875 2.117188 15.28125 2.117188 14.550781 L 2.117188 2.382812 C 2.117188 1.652344 2.707031 1.058594 3.441406 1.058594 Z M 3.441406 1.058594 "/>
<g mask="url(#mask-0)">
<use xlink:href="#source-7536"/>
</g>
<path fill-rule="nonzero" fill="rgb(100%, 100%, 100%)" fill-opacity="1" d="M 7.9375 6.613281 L 7.9375 8.335938 C 7.9375 8.40625 7.996094 8.464844 8.070312 8.464844 L 8.863281 8.464844 C 8.9375 8.464844 8.996094 8.40625 8.996094 8.335938 L 8.996094 6.613281 Z M 8.203125 7.671875 L 8.730469 7.671875 L 8.730469 8.203125 L 8.203125 8.203125 Z M 8.203125 7.671875 "/>
<path fill-rule="nonzero" fill="rgb(100%, 100%, 100%)" fill-opacity="1" d="M 8.46875 1.058594 L 7.9375 1.058594 L 7.9375 1.585938 L 8.46875 1.585938 Z M 8.46875 1.585938 L 8.46875 2.117188 L 8.996094 2.117188 L 8.996094 1.585938 Z M 8.46875 2.117188 L 7.9375 2.117188 L 7.9375 2.644531 L 8.46875 2.644531 Z M 8.46875 2.644531 L 8.46875 3.175781 L 8.996094 3.175781 L 8.996094 2.644531 Z M 8.46875 3.175781 L 7.9375 3.175781 L 7.9375 3.703125 L 8.46875 3.703125 Z M 8.46875 3.703125 L 8.46875 4.234375 L 8.996094 4.234375 L 8.996094 3.703125 Z M 8.46875 4.234375 L 7.9375 4.234375 L 7.9375 4.761719 L 8.46875 4.761719 Z M 8.46875 4.761719 L 8.46875 5.292969 L 8.996094 5.292969 L 8.996094 4.761719 Z M 8.46875 5.292969 L 7.9375 5.292969 L 7.9375 5.820312 L 8.46875 5.820312 Z M 8.46875 5.820312 L 8.46875 6.351562 L 8.996094 6.351562 L 8.996094 5.820312 Z M 8.46875 5.820312 "/>
<g mask="url(#mask-1)">
<use xlink:href="#source-7542"/>
</g>
</svg>

<svg width="64" height="64" version="1.1" viewBox="0 0 16.933 16.933" xmlns="http://www.w3.org/2000/svg">
 <defs>
  <linearGradient id="a" x1="49.571" x2="51.714" y1="52.714" y2="54.857" gradientTransform="matrix(.61734 0 0 .61734 -18.168 -19.05)" gradientUnits="userSpaceOnUse">
   <stop offset="0"/>
   <stop stop-opacity="0" offset="1"/>
  </linearGradient>
 </defs>
 <rect x="2.1166" y="1.0583" width="12.7" height="14.816" ry="1.3229" fill="#ff7643" stroke-width=".26458" style="paint-order:stroke fill markers"/>
 <path d="m14.816 12.171-3.7041 3.7041h2.3812c0.73289 0 1.3229-0.59001 1.3229-1.3229z" fill="url(#a)" fill-rule="evenodd" opacity=".15" stroke-width="2.3334" style="paint-order:stroke fill markers"/>
 <g fill="#fff">
  <path d="m7.938 6.6145v1.7198c0 0.073288 0.059 0.13229 0.13229 0.13229h0.79374c0.07329 0 0.13229-0.059001 0.13229-0.13229v-1.7198zm0.26458 1.0583h0.52916v0.52916h-0.52916z" color="#000000"/>
  <path d="m8.467 1.0583h-0.52916v0.52916h0.52916zm0 0.52916v0.52916h0.52916v-0.52916zm0 0.52916h-0.52916v0.52916h0.52916zm0 0.52916v0.52916h0.52916v-0.52916zm0 0.52916h-0.52916v0.52916h0.52916zm0 0.52916v0.52916h0.52916v-0.52916zm0 0.52916h-0.52916v0.52916h0.52916zm0 0.52916v0.52916h0.52916v-0.52916zm0 0.52916h-0.52916v0.52916h0.52916zm0 0.52916v0.52916h0.52916v-0.52916z" color="#000000"/>
  <path transform="scale(.26458)" d="m19.26 32.967a32.849 32.849 0 0 0-0.052735 0.001953c-1.1908 0.023258-2.3724 0.069258-3.1445 0.18555-3.4794 0.53028-6.2611 1.7485-8.0566 3.5254a7.1634 7.1634 0 0 0-0.0058594 0.005859v10.225c0.92198 1.0021 2.1374 1.9421 3.7188 2.8828 1.3862 0.81402 2.4558 1.3533 5.5352 2.7441 3.698 1.6606 4.824 2.3295 5.3496 3.1621 0.20467 0.33956 0.27791 0.51328 0.25 0.91797-0.055818 0.64191-0.37536 0.96189-1.1289 1.2363-0.50702 0.17677-0.6851 0.23242-1.6387 0.23242-1.7443-0.018521-3.2797-0.34338-5.4102-1.1016a19.685 19.685 0 0 1-4.2129-2.0664c-1.2327-0.80472-1.3317-0.83599-1.6992-0.64062-0.074311 0.040867-0.4866 0.40882-0.76367 0.64453v0.076172c0 2.77 2.23 5 5 5h21.555c0.59754-0.71709 1.0014-1.3919 1.3184-2.2832 0.36284-1.0094 0.45728-3.0054 0.1875-4.2148-0.4419-1.9583-1.619-3.7315-3.5215-5.2246-1.9071-1.4978-3.8433-2.4929-8.4902-4.3535-3.2468-1.2931-4.4649-1.9802-4.7812-2.7012-0.17211-0.38608-0.070287-1.0715 0.18555-1.332 0.51167-0.51632 1.4989-0.70233 2.7734-0.54883 2.3723 0.29303 5.4227 1.3823 8.1113 2.8848 0.52097 0.28838 1.0239 0.52948 1.1309 0.55274 0.43724 0.11165 0.69679-0.059639 2.4551-2.0645 2.1537-2.4653 2.1315-2.3671 0.94531-3.209-3.5352-2.5304-7.6281-4.0015-12.326-4.4434a32.849 32.849 0 0 0-3.2832-0.09375z" opacity=".5" stroke-width="4.6515"/>
 </g>
</svg>
